X: 44
T:Alle mann hadde fota
M:3/4
L:1/8
Q:280
C:trad.
R:Pols
O:Norway
Z:Transcribed by Frank Nordberg - http://www.musicaviva.com
K:Amin
"Am"A>Bc2B>A|"Am"e2e4|"Am"(A>B)c2B>A|
w:Al- le mann had- de fo- ta, min[ext] mann had- de
"Am"c2"E7"B4|"Am"A>Bc2B>A|"Am"e2e4|"Am"A>Bc2"E7"B2|
w:in- gen, tok eg meg bj\or- ke- ro- ta, gjor- de min mann
"Am"A2A4|"Am"c2"E7"B4|"Am"c>c"E7"B4|"Am"c>c"E7"B2B2|
w:fo- ta. Min mann dan- sa fram, fot i ho- se
"Am"c>c"E7"B4|"Am"A>Bc2"E7"B>^G|"Am"A>AA2z2|]
w:had- de han lik- so vel som ein an- nan mann.
w:Alle mann hadde arma',
W:min mann hadde ingen,
W:tok eg meg eit par tarma',
W:gjorde min mann arma'.
W:Min mann dansa fram,
W:tarme-arma' hadde han
W:likso vel som ein annan mann.
w:Alle mann hadde aua,
W:min mann hadde ingen,
W:tok eg meg eit par saua',
W:gjorde min mann aua.
W:Min mann dansa fram,
W:saue-aua hadde han
W:likso vel som ein annan mann.
W:
W: From "Falaleiro" http://home.t-online.de/home/pheld/homepage.htm

